img/arrow-hp.svg

<svg fill="none" height="117" viewBox="0 0 236 117" width="236" xmlns="http://www.w3.org/2000/svg"><path clip-rule="evenodd" d="m218.762 78.7997.182-.1392c1.645-1.2612 2.864-2.1964 3.712-2.8924.06-.0497.118-.0979.174-.1445-.356.0246-.77.0576-1.246.0955l-.083.0066c-2.073.1617-3.824.0467-5.063-.3785-.621-.213-1.201-.5335-1.602-1.0224-.431-.5257-.592-1.1727-.462-1.8498l.005-.0277.007-.0274c.185-.7399.808-1.068 1.3-1.1796.491-.1116 1.041-.0699 1.56.049l.035.008.034.0105s-.001-.0004.002.0001c.013.0025.075.0146.21.0228.149.0091.346.0113.591.0044.488-.0138 1.12-.0621 1.857-.142 1.47-.1594 3.307-.4388 5.155-.7917 2.358-.463 4.232-.7459 5.679-.8248 1.388-.0758 2.573.0209 3.411.4961l.009.0048c.336.1773.737.3886 1.031.657.169.1546.335.354.448.6136.115.2635.152.5338.138.7954-.025.474-.222.9655-.45 1.4462-.24.5057-.588 1.1417-1.029 1.9372l-.004.0078-.004.0077c-1.013 1.7544-2.748 5.5295-3.848 8.3435l-.001.0047c-.823 2.0735-1.397 3.4244-1.877 4.2378-.238.4037-.511.7773-.859 1.0307-.406.2952-.856.3847-1.304.3064-.577-.0989-1.126-.3011-1.571-.6732-.462-.3853-.742-.8949-.861-1.4741-.22-1.0748.115-2.394.722-3.8466.421-1.0835.915-2.4037 1.279-3.4513-.332.2608-.713.5637-1.148.912l-.007.0056c-10.504 8.25-26.219 15.6449-41.316 19.3521h-.002c-22.099 5.392-37.437 3.286-46.56-7.0349l-.006-.0061-2.379-2.7367-2.988.6803c-11.341 2.55-24.678 1.1486-35.7266-3.6914l-.003-.0013-3.5664-1.5352-5.9073 4.6483-.0013.001c-17.1458 13.445-34.3222 18.884-50.7383 15.978l-.0053-.001c-2.8846-.526-6.5408-1.399-8.0601-1.956l-.0066-.003c-1.1257-.421-1.6781-.54-2.0588-.516-.3043.02-.603.138-1.1884.619-3.2266 2.774-8.0422 5.905-12.27 8.21-2.11751 1.155-4.11733 2.118-5.72097 2.73-.7983.304-1.53091.534-2.14774.65-.30832.058-.61658.094-.90613.086-.27777-.008-.62122-.057-.93649-.239-.51241-.296-1.08441-.711-1.33245-1.335-.301598-.758-.00607-1.446.40425-1.944.39084-.475.9968-.931 1.73333-1.395.75412-.475 1.7255-1.006 2.91505-1.615l.00762-.004.0077-.004c4.70043-2.304 10.63273-5.983 13.42583-8.271l.0101-.008.3437-.267-1.4345-.828c-1.7439-1.0071-3.5989-2.5355-5.1252-4.1198-1.5012-1.5582-2.7984-3.2873-3.2983-4.7264-2.66039-7.4031 2.2899-15.9114 10.3686-18.2287l.0012-.0004c2.8995-.8281 5.5825-.7132 7.8925.4172 2.3044 1.1278 4.1097 3.2035 5.3809 6.0561l.0019.0044c2.1437 4.8727 1.2312 10.0803-2.4172 16.3994l-.0057.01-2.2803 3.8462.8061.279c3.3071 1.183 10.1096 2.148 14.494 2.152 3.1153-.01 8.0832-.979 13.1461-2.431 5.0521-1.449 10.0644-3.3403 13.2628-5.128 2.8594-1.6129 7.1488-4.5643 10.7377-7.2573 1.7918-1.3445 3.391-2.6112 4.5361-3.6003.5709-.4932 1.0118-.9027 1.3044-1.2103-.0418-.037-.0873-.0762-.1366-.1174-.3909-.3264-.9481-.7193-1.585-1.087-1.4735-.8507-4.2574-3.169-6.3502-5.2148-9.3342-9.1049-13.3061-20.632-12.0911-32.4036 1.2133-11.7551 7.5872-23.6732 18.7894-33.6489l.0034-.003c6.5632-5.79188 13.1399-9.13819 18.9633-9.786112 5.887-.6550016 10.966 1.462992 14.285 6.460522l.005.00827.005.00838c.996 1.56519 1.944 4.12324 2.654 6.83934.714 2.7331 1.215 5.7403 1.263 8.2502.409 17.5701-9.15 39.7417-24.4221 56.8277-.8881 1.0203-1.6916 1.9973-2.2523 2.7477-.176.2356-.3218.4405-.4363.6119.2205.1199.5096.2598.8659.4165.9646.4243 2.3119.9241 3.8488 1.4323 3.076 1.0169 6.816 2.0365 9.6 2.5337 6.314 1.1265 12.902 1.0039 19.041-.4054.003-.0006.005-.0012.008-.0018l3.37-.8283-.421-2.0645c-.488-2.4676-.607-4.5028-.163-6.6455.44-2.1218 1.417-4.273 2.99-6.9975 1.719-3.0437 3.42-5.3275 5.343-6.9812 1.938-1.6667 4.063-2.6596 6.572-3.1808 2.029-.4662 3.805-.4681 5.348.1514 1.559.6258 2.737 1.8273 3.674 3.4783 2.077 3.6621 1.164 8.4064-1.415 12.7214-2.603 4.355-7.027 8.5181-12.481 11.2151l-.002.0007-2.658 1.3288 1.122 1.5346c1.109 1.5345 2.995 3.1029 5.275 4.4195 2.271 1.3111 4.863 2.3316 7.322 2.8147 8.864 1.7204 20.805.4912 32.807-2.9094 11.99-3.3969 23.917-8.9259 32.745-15.6892zm-123.1956 3.4011c-.0149-.0137-.0106-.0124.004.0036-.0016-.0014-.004-.0036-.004-.0036zm19.3606-72.9201c-1.876-2.88876-4.26-4.19622-7.285-4.10183-3.131.09771-7.076 1.70142-11.9493 5.02293l-.0023.0015c-7.9341 5.3764-12.0149 9.8775-17.4503 19.2919-2.1669 3.7532-3.3367 5.8801-4.0732 7.6132-.7212 1.697-1.0327 3.03-1.4398 5.2227-1.6529 9.4913.4213 18.6161 6.0581 26.4299l.001.0014c2.3136 3.2186 5.2529 6.1875 7.8121 8.1322 1.2853.9766 2.4284 1.6594 3.3148 2.0002.4446.171.7721.2353.9906.2377.1047.0012.1664-.012.1968-.0219.0147-.0048.0222-.0088.0248-.0103l.0023-.0015.003-.0027c3.4016-3.1511 7.9885-9.14 12.2204-15.6705 4.227-6.5223 8.029-13.4742 9.9-18.5119 2.704-7.3387 4.214-14.6119 4.49-20.8918.278-6.3123-.697-11.4853-2.814-14.7412zm37.077 58.156v-.002c-.114-1.6197-.501-2.4239-.91-2.7782-.346-.2998-.948-.4721-2.123-.1151-3.081.9343-6.243 3.773-8.506 7.296-2.267 3.5292-3.468 7.4876-2.939 10.5045l.001.0058.206 1.2189.799-.3118.005-.002c1.621-.6546 3.785-2.1349 5.906-3.9885 2.111-1.8452 4.092-3.9834 5.367-5.879 1.14-1.7094 1.701-2.6418 1.982-3.4231.26-.7192.296-1.3514.212-2.5255zm-125.0084 24.9455.0024-.0047c1.1753-2.2862 1.8749-4.6885 2.0913-6.853.2179-2.1805-.0626-4.0261-.7371-5.2732-.7823-1.4078-1.4642-2.0272-2.2647-2.2747-.8631-.2668-2.0925-.1786-4.153.4206-2.8374.8487-4.6778 2.3668-6.2645 5.1151-1.2137 2.1022-1.3814 4.2668-.5971 6.3857.7967 2.1525 2.6088 4.3377 5.5007 6.3354.8434.5821 1.453.997 1.923 1.2828.4863.2958.7289.3927.8518.419.0228.0048.0268.0076.0295.0067.0025-.0008.004-.0044.0169-.0121.1059-.0633.2492-.193.5746-.517.2467-.28.7176-.9683 1.2912-1.9134.5698-.9387 1.1981-2.0591 1.735-3.1172z" fill="#2f221b" fill-rule="evenodd"/></svg>

<svg width="236" height="117" viewBox="0 0 236 117" fill="none" xmlns="http://www.w3.org/2000/svg">
<path fill-rule="evenodd" clip-rule="evenodd" d="M218.762 78.7997L218.944 78.6605C220.589 77.3993 221.808 76.4641 222.656 75.7681C222.716 75.7184 222.774 75.6702 222.83 75.6236C222.474 75.6482 222.06 75.6812 221.584 75.7191L221.501 75.7257C219.428 75.8874 217.677 75.7724 216.438 75.3472C215.817 75.1342 215.237 74.8137 214.836 74.3248C214.405 73.7991 214.244 73.1521 214.374 72.475L214.379 72.4473L214.386 72.4199C214.571 71.68 215.194 71.3519 215.686 71.2403C216.177 71.1287 216.727 71.1704 217.246 71.2893L217.281 71.2973L217.315 71.3078C217.315 71.3078 217.314 71.3074 217.317 71.3079C217.33 71.3104 217.392 71.3225 217.527 71.3307C217.676 71.3398 217.873 71.342 218.118 71.3351C218.606 71.3213 219.238 71.273 219.975 71.1931C221.445 71.0337 223.282 70.7543 225.13 70.4014C227.488 69.9384 229.362 69.6555 230.809 69.5766C232.197 69.5008 233.382 69.5975 234.22 70.0727L234.229 70.0775C234.565 70.2548 234.966 70.4661 235.26 70.7345C235.429 70.8891 235.595 71.0885 235.708 71.3481C235.823 71.6116 235.86 71.8819 235.846 72.1435C235.821 72.6175 235.624 73.109 235.396 73.5897C235.156 74.0954 234.808 74.7314 234.367 75.5269L234.363 75.5347L234.359 75.5424C233.346 77.2968 231.611 81.0719 230.511 83.8859L230.51 83.8906C229.687 85.9641 229.113 87.315 228.633 88.1284C228.395 88.5321 228.122 88.9057 227.774 89.1591C227.368 89.4543 226.918 89.5438 226.47 89.4655C225.893 89.3666 225.344 89.1644 224.899 88.7923C224.437 88.407 224.157 87.8974 224.038 87.3182C223.818 86.2434 224.153 84.9242 224.76 83.4716C225.181 82.3881 225.675 81.0679 226.039 80.0203C225.707 80.2811 225.326 80.584 224.891 80.9323L224.884 80.9379C214.38 89.1879 198.665 96.5828 183.568 100.29L183.566 100.29C161.467 105.682 146.129 103.576 137.006 93.2551L137 93.249L134.621 90.5123L131.633 91.1926C120.292 93.7426 106.955 92.3412 95.9064 87.5012L95.9034 87.4999L92.337 85.9647L86.4297 90.613L86.4284 90.614C69.2826 104.059 52.1062 109.498 35.6901 106.592L35.6848 106.591C32.8002 106.065 29.144 105.192 27.6247 104.635L27.6181 104.632C26.4924 104.211 25.94 104.092 25.5593 104.116C25.255 104.136 24.9563 104.254 24.3709 104.735C21.1443 107.509 16.3287 110.64 12.1009 112.945C9.98339 114.1 7.98357 115.063 6.37993 115.675C5.58163 115.979 4.84902 116.209 4.23219 116.325C3.92387 116.383 3.61561 116.419 3.32606 116.411C3.04829 116.403 2.70484 116.354 2.38957 116.172C1.87716 115.876 1.30516 115.461 1.05712 114.837C0.755522 114.079 1.05105 113.391 1.46137 112.893C1.85221 112.418 2.45817 111.962 3.1947 111.498C3.94882 111.023 4.9202 110.492 6.10975 109.883L6.11737 109.879L6.12507 109.875C10.8255 107.571 16.7578 103.892 19.5509 101.604L19.561 101.596L19.9047 101.329L18.4702 100.501C16.7263 99.4939 14.8713 97.9655 13.345 96.3812C11.8438 94.823 10.5466 93.0939 10.0467 91.6548C7.38631 84.2517 12.3366 75.7434 20.4153 73.4261L20.4165 73.4257C23.316 72.5976 25.999 72.7125 28.309 73.8429C30.6134 74.9707 32.4187 77.0464 33.6899 79.899L33.6918 79.9034C35.8355 84.7761 34.923 89.9837 31.2746 96.3028L31.2689 96.3128L28.9886 100.159L29.7947 100.438C33.1018 101.621 39.9043 102.586 44.2887 102.59C47.404 102.58 52.3719 101.611 57.4348 100.159C62.4869 98.71 67.4992 96.8187 70.6976 95.031C73.557 93.4181 77.8464 90.4667 81.4353 87.7737C83.2271 86.4292 84.8263 85.1625 85.9714 84.1734C86.5423 83.6802 86.9832 83.2707 87.2758 82.9631C87.234 82.9261 87.1885 82.8869 87.1392 82.8457C86.7483 82.5193 86.1911 82.1264 85.5542 81.7587C84.0807 80.908 81.2968 78.5897 79.204 76.5439C69.8698 67.439 65.8979 55.9119 67.1129 44.1403C68.3262 32.3852 74.7001 20.4671 85.9023 10.4914L85.9057 10.4884C92.4689 4.69652 99.0456 1.35021 104.869 0.702288C110.756 0.0472864 115.835 2.16528 119.154 7.16281L119.159 7.17108L119.164 7.17946C120.16 8.74465 121.108 11.3027 121.818 14.0188C122.532 16.7519 123.033 19.7591 123.081 22.269C123.49 39.8391 113.931 62.0107 98.6589 79.0967C97.7708 80.117 96.9673 81.094 96.4066 81.8444C96.2306 82.08 96.0848 82.2849 95.9703 82.4563C96.1908 82.5762 96.4799 82.7161 96.8362 82.8728C97.8008 83.2971 99.1481 83.7969 100.685 84.3051C103.761 85.322 107.501 86.3416 110.285 86.8388C116.599 87.9653 123.187 87.8427 129.326 86.4334C129.329 86.4328 129.331 86.4322 129.334 86.4316L132.704 85.6033L132.283 83.5388C131.795 81.0712 131.676 79.036 132.12 76.8933C132.56 74.7715 133.537 72.6203 135.11 69.8958C136.829 66.8521 138.53 64.5683 140.453 62.9146C142.391 61.2479 144.516 60.255 147.025 59.7338C149.054 59.2676 150.83 59.2657 152.373 59.8852C153.932 60.511 155.11 61.7125 156.047 63.3635C158.124 67.0256 157.211 71.7699 154.632 76.0849C152.029 80.4399 147.605 84.603 142.151 87.3L142.149 87.3007L139.491 88.6295L140.613 90.1641C141.722 91.6986 143.608 93.267 145.888 94.5836C148.159 95.8947 150.751 96.9152 153.21 97.3983C162.074 99.1187 174.015 97.8895 186.017 94.4889C198.007 91.092 209.934 85.563 218.762 78.7997ZM95.5664 82.2008C95.5515 82.1871 95.5558 82.1884 95.5704 82.2044C95.5688 82.203 95.5664 82.2008 95.5664 82.2008ZM114.927 9.2807C113.051 6.39194 110.667 5.08448 107.642 5.17887C104.511 5.27658 100.566 6.88029 95.6927 10.2018L95.6904 10.2033C87.7563 15.5797 83.6755 20.0808 78.2401 29.4952C76.0732 33.2484 74.9034 35.3753 74.1669 37.1084C73.4457 38.8054 73.1342 40.1384 72.7271 42.3311C71.0742 51.8224 73.1484 60.9472 78.7852 68.761L78.7862 68.7624C81.0998 71.981 84.0391 74.9499 86.5983 76.8946C87.8836 77.8712 89.0267 78.554 89.9131 78.8948C90.3577 79.0658 90.6852 79.1301 90.9037 79.1325C91.0084 79.1337 91.0701 79.1205 91.1005 79.1106C91.1152 79.1058 91.1227 79.1018 91.1253 79.1003L91.1276 79.0988L91.1306 79.0961C94.5322 75.945 99.1191 69.9561 103.351 63.4256C107.578 56.9033 111.38 49.9514 113.251 44.9137C115.955 37.575 117.465 30.3018 117.741 24.0219C118.019 17.7096 117.044 12.5366 114.927 9.2807ZM152.004 67.4367L152.004 67.4347C151.89 65.815 151.503 65.0108 151.094 64.6565C150.748 64.3567 150.146 64.1844 148.971 64.5414C145.89 65.4757 142.728 68.3144 140.465 71.8374C138.198 75.3666 136.997 79.325 137.526 82.3419L137.527 82.3477L137.733 83.5666L138.532 83.2548L138.537 83.2528C140.158 82.5982 142.322 81.1179 144.443 79.2643C146.554 77.4191 148.535 75.2809 149.81 73.3853C150.95 71.6759 151.511 70.7435 151.792 69.9622C152.052 69.243 152.088 68.6108 152.004 67.4367ZM26.9956 92.3822L26.998 92.3775C28.1733 90.0913 28.8729 87.689 29.0893 85.5245C29.3072 83.344 29.0267 81.4984 28.3522 80.2513C27.5699 78.8435 26.888 78.2241 26.0875 77.9766C25.2244 77.7098 23.995 77.798 21.9345 78.3972C19.0971 79.2459 17.2567 80.764 15.67 83.5123C14.4563 85.6145 14.2886 87.7791 15.0729 89.898C15.8696 92.0505 17.6817 94.2357 20.5736 96.2334C21.417 96.8155 22.0266 97.2304 22.4966 97.5162C22.9829 97.812 23.2255 97.9089 23.3484 97.9352C23.3712 97.94 23.3752 97.9428 23.3779 97.9419C23.3804 97.9411 23.3819 97.9375 23.3948 97.9298C23.5007 97.8665 23.644 97.7368 23.9694 97.4128C24.2161 97.1328 24.687 96.4445 25.2606 95.4994C25.8304 94.5607 26.4587 93.4403 26.9956 92.3822Z" fill="#2F221B"/>
</svg>
